src/images_karasa_jaga_svg/cmd/32/arrowshapes.split-arrow.svg

<svg height="32" viewBox="0 0 32 32" width="32" xmlns="http://www.w3.org/2000/svg" xmlns:xlink="http://www.w3.org/1999/xlink"><linearGradient id="a" gradientUnits="userSpaceOnUse" x1="-.037799" x2="128.0378" y1="64.17524" y2="64.17524"><stop offset="0" stop-color="#7c9fcf"/><stop offset=".5" stop-color="#7c9ece"/><stop offset="1" stop-color="#7b9dcf"/></linearGradient><linearGradient id="b" gradientUnits="userSpaceOnUse" x1="60" x2="60" y1="128" y2="0"><stop offset="0" stop-color="#fff"/><stop offset=".53340602" stop-color="#fff"/><stop offset=".9375" stop-color="#f1f1f1"/><stop offset=".96875" stop-color="#eaeaea"/><stop offset="1" stop-color="#dfdfdf"/></linearGradient><g fill-rule="evenodd" transform="matrix(.25 0 0 .25 -.00003 .001953)"><path d="m4.7734375-.0078125c-1.418331-.00000857-2.5203958.46419853-3.5078125 1.4785156a4.0291733 4.0291733 0 0 0 -.00195.00195c-.45127227.4639428-.98424407 1.357071-1.1621125 2.0898469s-.13477147 1.1082711-.13476562 1.2460938a4.0291733 4.0291733 0 0 0 0 .00195l.0097656 32.6445312c.0011889 4.300777 5.48831902 6.997977 8.75976562 3.726563l7.0332029-7.035157 35.503907 34.154297.697265.982422v54.7168.33008a4.0291733 4.0291733 0 0 0 4.113281 4.02734l7.916016-.16406 7.916016.16406a4.0291733 4.0291733 0 0 0 4.113281-4.02734v-.33008-54.716797l.697265-.982422 35.503908-34.154297 7.0332 7.035157c3.27145 3.271415 8.75858.574216 8.75977-3.726563l.01-32.6445311a4.0291733 4.0291733 0 0 0 0-.00195c.00001-.1371519.0431-.5108905-.13476-1.2441407-.17785-.7332502-.7122-1.6295644-1.16406-2.09375-.98746-1.01435662-2.08949-1.47852417-3.50782-1.4785156h-32.427972c-2.046307.00000235-4.054704 1.299885-4.876953 3.0527344-.822249 1.7528462-.613512 4.231296 1.037109 5.830075l6.535157 6.537109-29.494141 29.759766-29.494141-29.759766 6.535157-6.537109c1.650621-1.5987791 1.859358-4.0772288 1.037109-5.8300781s-2.830646-3.05273205-4.876953-3.0527344z" fill="url(#a)"/><path d="m4.7734375 4.0214844c-.23172-.0000014-.4678737.1023714-.6210937.2597656-.1531301.1574296-.1562601.2866942-.15625.5273438l.00977 32.6445312c.00029 1.049103 1.2705294 1.48923 1.8808594.878906l9.8281248-9.828125 38.625 37.15625 1.660152 2.339844v56 .33008l8-.16602 8 .16602v-.33008-56l1.660156-2.339844 38.625004-37.15625 9.82812 9.828125c.61033.610324 1.88057.170197 1.88086-.878906l.01-32.6445312c.00001-.2406497-.003-.3699142-.15625-.5273438-.15322-.1573942-.38938-.259767-.6211-.2597656h-32.427962c-1.219242.0000014-1.712949 1.304371-1.037109 1.9589844l9.417969 9.4179692-35.179688 35.496093-35.179688-35.496093 9.417969-9.4179692c.67584-.6546134.182133-1.958983-1.037109-1.9589844z" fill="url(#b)"/></g></svg>

<?xml version="1.0" encoding="UTF-8" standalone="no"?>
<!-- Created with Inkscape (http://www.inkscape.org/) -->

<svg
   xmlns:dc="http://purl.org/dc/elements/1.1/"
   xmlns:cc="http://creativecommons.org/ns#"
   xmlns:rdf="http://www.w3.org/1999/02/22-rdf-syntax-ns#"
   xmlns:svg="http://www.w3.org/2000/svg"
   xmlns="http://www.w3.org/2000/svg"
   xmlns:xlink="http://www.w3.org/1999/xlink"
   xmlns:sodipodi="http://sodipodi.sourceforge.net/DTD/sodipodi-0.dtd"
   xmlns:inkscape="http://www.inkscape.org/namespaces/inkscape"
   version="1.1"
   id="svg2"
   width="128"
   height="128"
   viewBox="0 0 128 128"
   sodipodi:docname="arrowshapes.split-arrow.svg"
   inkscape:export-filename="/home/rizmut/Dokumen/Rizmut/Github/libreoffice-style-karasa-jaga/build/images_karasa_jaga/cmd/32/arrowshapes.split-arrow.png"
   inkscape:export-xdpi="24"
   inkscape:export-ydpi="24"
   inkscape:version="0.92.3 (unknown)">
  <metadata
     id="metadata8">
    <rdf:RDF>
      <cc:Work
         rdf:about="">
        <dc:format>image/svg+xml</dc:format>
        <dc:type
           rdf:resource="http://purl.org/dc/dcmitype/StillImage" />
        <dc:title />
      </cc:Work>
    </rdf:RDF>
  </metadata>
  <defs
     id="defs6">
    <inkscape:perspective
       id="perspective27"
       inkscape:persp3d-origin="64 : 42.666667 : 1"
       inkscape:vp_z="128 : 64 : 1"
       inkscape:vp_y="0 : 1000 : 0"
       inkscape:vp_x="0 : 64 : 1"
       sodipodi:type="inkscape:persp3d" />
    <linearGradient
       id="linearGradient3369">
      <stop
         id="stop3372"
         offset="0"
         style="stop-color:#ffffff;stop-opacity:1;" />
      <stop
         style="stop-color:#ffffff;stop-opacity:1;"
         offset="0.53340602"
         id="stop3374" />
      <stop
         style="stop-color:#f1f1f1;stop-opacity:1;"
         offset="0.9375"
         id="stop3376" />
      <stop
         id="stop3378"
         offset="0.96875"
         style="stop-color:#eaeaea;stop-opacity:1;" />
      <stop
         id="stop3384"
         offset="1"
         style="stop-color:#dfdfdf;stop-opacity:1;" />
    </linearGradient>
    <linearGradient
       id="linearGradient7422">
      <stop
         style="stop-color:#7c9fcf;stop-opacity:1"
         offset="0"
         id="stop7424" />
      <stop
         id="stop5348"
         offset="0.5"
         style="stop-color:#7c9ece;stop-opacity:1" />
      <stop
         id="stop7426"
         offset="1"
         style="stop-color:#7b9dcf;stop-opacity:1" />
    </linearGradient>
    <linearGradient
       y2="388.95178"
       x2="399.77466"
       y1="1324.7792"
       x1="405.94968"
       gradientTransform="matrix(0.08097132,0,0,0.07807154,182.74486,-6.9021226)"
       gradientUnits="userSpaceOnUse"
       id="linearGradient2330"
       xlink:href="#linearGradient7422"
       inkscape:collect="always" />
    <linearGradient
       inkscape:collect="always"
       xlink:href="#linearGradient7422"
       id="linearGradient859"
       x1="-0.037799023"
       y1="64.17524"
       x2="128.0378"
       y2="64.17524"
       gradientUnits="userSpaceOnUse" />
    <linearGradient
       inkscape:collect="always"
       xlink:href="#linearGradient3369"
       id="linearGradient839"
       x1="60"
       y1="128"
       x2="60"
       y2="0"
       gradientUnits="userSpaceOnUse" />
  </defs>
  <sodipodi:namedview
     pagecolor="#ffffff"
     bordercolor="#666666"
     borderopacity="1"
     objecttolerance="10"
     gridtolerance="10"
     guidetolerance="10"
     inkscape:pageopacity="0"
     inkscape:pageshadow="2"
     inkscape:window-width="1366"
     inkscape:window-height="706"
     id="namedview4"
     showgrid="true"
     inkscape:snap-page="true"
     inkscape:snap-global="true"
     inkscape:zoom="2"
     inkscape:cx="86.351145"
     inkscape:cy="35.185049"
     inkscape:window-x="0"
     inkscape:window-y="0"
     inkscape:window-maximized="1"
     inkscape:current-layer="svg2"
     showguides="false"
     inkscape:guide-bbox="true">
    <inkscape:grid
       type="xygrid"
       id="grid837"
       spacingx="4"
       spacingy="4"
       empspacing="1" />
    <sodipodi:guide
       position="122.17134,124.51883"
       orientation="1,0"
       id="guide838"
       inkscape:locked="false" />
  </sodipodi:namedview>
  <path
     sodipodi:type="inkscape:offset"
     inkscape:radius="4.0287704"
     inkscape:original="M 4.7734375 4.0214844 C 4.5417175 4.021483 4.3055638 4.1238558 4.1523438 4.28125 C 3.9992137 4.4386796 3.9960836 4.5679442 3.9960938 4.8085938 L 4.0058594 37.453125 C 4.0061494 38.502228 5.2763887 38.942355 5.8867188 38.332031 L 15.714844 28.503906 L 54.339844 65.660156 L 56 68 L 56 124 L 56 124.33008 L 64 124.16406 L 72 124.33008 L 72 124 L 72 68 L 73.660156 65.660156 L 112.28516 28.503906 L 122.11328 38.332031 C 122.72361 38.942355 123.99385 38.502228 123.99414 37.453125 L 124.00391 4.8085938 C 124.00392 4.5679441 124.00091 4.4386796 123.84766 4.28125 C 123.69444 4.1238558 123.45828 4.021483 123.22656 4.0214844 L 90.798828 4.0214844 C 89.579586 4.0214858 89.085879 5.3258553 89.761719 5.9804688 L 99.179688 15.398438 L 64 50.894531 L 28.820312 15.398438 L 38.238281 5.9804688 C 38.914121 5.3258554 38.420414 4.0214858 37.201172 4.0214844 L 4.7734375 4.0214844 z "
     style="fill:url(#linearGradient859);fill-opacity:1.0;fill-rule:evenodd;stroke:none;stroke-width:4.6329999;stroke-linecap:round;stroke-linejoin:round;stroke-miterlimit:4;stroke-dasharray:none;stroke-opacity:1"
     id="path849"
     d="m 4.7734375,-0.0078125 c -1.418331,-8.57e-6 -2.5203958,0.46419853 -3.5078125,1.4785156 a 4.0291733,4.0291733 0 0 0 -0.00195,0.00195 C 0.81240273,1.9365959 0.27943093,2.8297241 0.1015625,3.5625 -0.07630593,4.2952759 -0.03320897,4.6707711 -0.03320312,4.8085938 a 4.0291733,4.0291733 0 0 0 0,0.00195 l 0.0097656,32.6445311 c 0.0011889,4.300777 5.488319,6.997977 8.7597656,3.726563 l 7.0332029,-7.035157 35.503907,34.154297 0.697265,0.982422 V 124 v 0.33008 a 4.0291733,4.0291733 0 0 0 4.113281,4.02734 L 64,128.19336 l 7.916016,0.16406 a 4.0291733,4.0291733 0 0 0 4.113281,-4.02734 V 124 69.283203 l 0.697265,-0.982422 35.503908,-34.154297 7.0332,7.035157 c 3.27145,3.271415 8.75858,0.574216 8.75977,-3.726563 l 0.01,-32.6445311 a 4.0291733,4.0291733 0 0 0 0,-0.00195 c 1e-5,-0.1371519 0.0431,-0.5108905 -0.13476,-1.2441407 -0.17785,-0.7332502 -0.7122,-1.6295644 -1.16406,-2.09375 -0.98746,-1.01435662 -2.08949,-1.47852417 -3.50782,-1.4785156 H 90.798828 c -2.046307,2.35e-6 -4.054704,1.299885 -4.876953,3.0527344 C 85.099626,4.7977712 85.308363,7.276221 86.958984,8.875 L 93.494141,15.412109 64,45.171875 34.505859,15.412109 41.041016,8.875 C 42.691637,7.2762209 42.900374,4.7977712 42.078125,3.0449219 41.255876,1.2920726 39.247479,-0.00781015 37.201172,-0.0078125 Z" />
  <path
     style="fill:url(#linearGradient839);fill-opacity:1;fill-rule:evenodd;stroke:none;stroke-width:4.6329999;stroke-linecap:round;stroke-linejoin:round;stroke-miterlimit:4;stroke-dasharray:none;stroke-opacity:1"
     d="M 4.7734375 4.0214844 C 4.5417175 4.021483 4.3055638 4.1238558 4.1523438 4.28125 C 3.9992137 4.4386796 3.9960837 4.5679442 3.9960938 4.8085938 L 4.0058594 37.453125 C 4.0061494 38.502228 5.2763888 38.942355 5.8867188 38.332031 L 15.714844 28.503906 L 54.339844 65.660156 L 56 68 L 56 124 L 56 124.33008 L 64 124.16406 L 72 124.33008 L 72 124 L 72 68 L 73.660156 65.660156 L 112.28516 28.503906 L 122.11328 38.332031 C 122.72361 38.942355 123.99385 38.502228 123.99414 37.453125 L 124.00391 4.8085938 C 124.00392 4.5679441 124.00079 4.4386796 123.84766 4.28125 C 123.69444 4.1238558 123.45828 4.021483 123.22656 4.0214844 L 90.798828 4.0214844 C 89.579586 4.0214858 89.085879 5.3258554 89.761719 5.9804688 L 99.179688 15.398438 L 64 50.894531 L 28.820312 15.398438 L 38.238281 5.9804688 C 38.914121 5.3258554 38.420414 4.0214858 37.201172 4.0214844 L 4.7734375 4.0214844 z "
     id="rect2326" />
  <g
     transform="matrix(0,0.57912965,0.57912965,0,27.114229,-2.9133545)"
     inkscape:label="Livello 1"
     id="g1544" />
  <g
     transform="matrix(0,-0.57912965,0.57912965,0,27.114229,130.91165)"
     inkscape:label="Livello 1"
     id="g1599" />
  <g
     transform="matrix(0.4095065,-0.4095065,-0.4095065,-0.4095065,59.150109,118.43939)"
     inkscape:label="Livello 1"
     id="g28873" />
  <g
     id="g28883"
     inkscape:label="Livello 1"
     transform="matrix(0,-0.57912965,0.57912965,0,29.099374,172.13372)" />
</svg>
